X:1
T:Title
%%score { ( 1 3 ) | ( 2 4 ) }
L:1/8
M:4/4
K:G
V:1 treble nm="Grand Piano"
V:3 treble 
V:2 bass 
V:4 bass 
V:1
 z4 z2[Q:1/4=96] [B,D]>[B,D] | [B,G]2 [DF][CE] [B,D]2 [B,G][DB] | A2 GA B3 B | c2 BA B2 AG | %4
 B2 A4 D>D | [B,G]2 [DF][CE] [B,D]2 [DG]A | B2 [DG]2 [CE]3 [CE] | %7
 [EA][G,EG][G,DF][G,CE] [G,B,D]2 [A,DF][CDA] |[M:3/4] [CDA]2 [B,DG]4 |[M:1/4] [DB]>[G,DG] | %10
[M:4/4] [G,CE]2 [CEG]>[CEA] [B,DG]2 [DB]>[G,DG] | [G,CE]2 [CEG]>[CEA] [B,DG]2 [DB]>[DB] | %12
 [DA]6[K:bass][K:treble] z2 | B2 A4 [DB]>[DA] | [EG][EA] [G,EG]>[G,CE] [G,B,D]2 [B,DG][DGB] | %15
[M:9/8] [DFA]2 [EA] [E^GB] [EAc]2- [EAc][D=GB][DFA] |[M:4/4] [DGd][DFc][DGB][CEA] G2 F/G/[CDA] | %17
[M:3/4] [CDA]2 [B,DG]4 |] %18
V:2
 z4 z2 [G,,G,]>[G,,G,] | [G,,G,]2 [G,,G,][G,,G,] [G,,G,]2 [G,,G,][G,,G,] | %2
 [D,F,D]2 [D,E,D][D,F,D] [G,D]3 [G,D] | [D,A,D]2 [D,G,D][D,F,D] [G,D]2 [E,A,^C][E,A,C] | %4
 [D,G,D]2 [D,F,D]4 [D,F,]>[D,F,C] | [G,,G,]2 [G,,G,][G,,G,] [G,,G,]2 [B,,G,][D,F,D] | %6
 [G,D]2 [B,,G,]2 [C,G,]3 [C,G,] | [C,G,]C,C,C, D,2 D,D, |[M:3/4] G,,2 G,,4 |[M:1/4] [G,,G,]>B,, | %10
[M:4/4] C,2 C,>C, G,,2 [G,,G,]>B,, | C,2 C,>C, G,,2 [G,,G,]>[G,,G,] | %12
 [D,F,]2 D,>D, D,2 [F,A,D]>[G,D] | [D,G,D]2 [D,F,D]4 [G,,G,]>[B,,G,] | %14
 [C,G,][C,G,] C,>C, G,,2 G,,G,, |[M:9/8] D,2 C, B,, A,,2- A,,D,C, |[M:4/4] z4 z2 .[D,D]2 | %17
[M:3/4] G,,2 G,,4 |] %18
V:3
 x8 | x8 | x8 | x8 | x8 | x8 | x8 | x8 |[M:3/4] x6 |[M:1/4] x2 |[M:4/4] x8 | x8 | %12
 z2[K:bass] F,>F, F,2[K:treble] c>B | x8 | x8 |[M:9/8] x9 |[M:4/4] x8 |[M:3/4] x6 |] %18
V:4
 x8 | x8 | x8 | x8 | x8 | x8 | x8 | x8 |[M:3/4] x6 |[M:1/4] x2 |[M:4/4] x8 | x8 | x8 | x8 | x8 | %15
[M:9/8] x9 |[M:4/4] B,,A,,G,,C, [D,B,D]2 A,/B,/D, |[M:3/4] x6 |] %18

